packages/tokens/icons/gearNodalTree/size32Px.svg

<svg viewBox="0 0 32 32" fill="none" xmlns="http://www.w3.org/2000/svg" width="1em" height="1em"><rect x="23.5" y="23.5" width="6" height="4" rx="1.5" stroke="currentColor"/><rect x="2.5" y="23.5" width="6" height="4" rx="1.5" stroke="currentColor"/><rect x="11.5" y="24.5" width="9" height="5" rx="1.5" stroke="currentColor"/><line x1="16" y1="18" x2="16" y2="24" stroke="currentColor"/><path d="M26.5 23.5V21.5C26.5 20.9477 26.0523 20.5 25.5 20.5H6.5C5.94772 20.5 5.5 20.9477 5.5 21.5V23" stroke="currentColor"/><circle cx="16" cy="10" r="2.5" stroke="currentColor"/><circle cx="16" cy="10" r="4.5" stroke="currentColor"/><path d="M23.1322 8.45758H22.3804C22.2262 7.78278 21.9563 7.16581 21.6093 6.5874L22.1298 6.06684C22.284 5.9126 22.284 5.68123 22.1298 5.52699L20.4911 3.88817C20.3369 3.73393 20.1055 3.73393 19.9513 3.88817L19.4308 4.40874C18.8525 4.0617 18.2356 3.79177 17.5608 3.63753V2.8856C17.5608 2.67352 17.3873 2.5 17.1752 2.5H14.8618C14.6498 2.5 14.4763 2.67352 14.4763 2.8856V3.63753C13.8015 3.79177 13.1846 4.0617 12.6063 4.40874L12.0665 3.88817C11.9123 3.73393 11.6809 3.73393 11.5267 3.88817L9.88804 5.52699C9.73381 5.68123 9.73381 5.9126 9.88804 6.06684L10.4086 6.5874C10.0615 7.16581 9.79165 7.78278 9.63742 8.45758H8.88557C8.6735 8.45758 8.5 8.63111 8.5 8.84319V11.1568C8.5 11.3689 8.6735 11.5424 8.88557 11.5424H9.63742C9.79165 12.2172 10.0615 12.8342 10.4086 13.4126L9.88804 13.9332C9.73381 14.0874 9.73381 14.3188 9.88804 14.473L11.5267 16.1118C11.6809 16.2661 11.9123 16.2661 12.0665 16.1118L12.587 15.5913C13.1654 15.9383 13.7823 16.2082 14.457 16.3625V17.1144C14.457 17.3265 14.6305 17.5 14.8426 17.5H17.156C17.368 17.5 17.5415 17.3265 17.5415 17.1144V16.3625C18.2163 16.2082 18.8332 15.9383 19.4115 15.5913L19.932 16.1118C20.0863 16.2661 20.3176 16.2661 20.4718 16.1118L22.1105 14.473C22.2647 14.3188 22.2647 14.0874 22.1105 13.9332L21.59 13.4126C21.937 12.8342 22.2069 12.2172 22.3611 11.5424L23.113 11.5424C23.325 11.5424 23.4985 11.3689 23.4985 11.1568V8.84319C23.5178 8.63111 23.3443 8.45758 23.1322 8.45758Z" stroke="currentColor" stroke-miterlimit="10"/></svg>

<svg xmlns="http://www.w3.org/2000/svg" fill="none" viewBox="0 0 32 32" width="1em" height="1em"><rect width="6" height="4" x="23.5" y="23.5" stroke="currentColor" rx="1.5"/><rect width="6" height="4" x="2.5" y="23.5" stroke="currentColor" rx="1.5"/><rect width="9" height="5" x="11.5" y="24.5" stroke="currentColor" rx="1.5"/><path stroke="currentColor" d="M16 18v6m10.5-.5v-2a1 1 0 0 0-1-1h-19a1 1 0 0 0-1 1V23"/><circle cx="16" cy="10" r="2.5" stroke="currentColor"/><circle cx="16" cy="10" r="4.5" stroke="currentColor"/><path stroke="currentColor" stroke-miterlimit="10" d="M23.132 8.458h-.752a6.385 6.385 0 0 0-.77-1.87l.52-.521a.373.373 0 0 0 0-.54l-1.64-1.639a.373.373 0 0 0-.54 0l-.52.52a6.383 6.383 0 0 0-1.87-.77v-.752a.387.387 0 0 0-.386-.386h-2.313a.387.387 0 0 0-.386.386v.752a6.383 6.383 0 0 0-1.87.77l-.54-.52a.373.373 0 0 0-.54 0L9.889 5.527a.373.373 0 0 0 0 .54l.52.52a6.383 6.383 0 0 0-.77 1.87h-.752a.387.387 0 0 0-.386.386v2.314c0 .212.174.385.386.385h.751a6.4 6.4 0 0 0 .772 1.87l-.521.521a.373.373 0 0 0 0 .54l1.639 1.639a.373.373 0 0 0 .54 0l.52-.52a6.388 6.388 0 0 0 1.87.77v.752c0 .212.173.386.386.386h2.313a.387.387 0 0 0 .386-.386v-.752a6.386 6.386 0 0 0 1.87-.77l.52.52a.373.373 0 0 0 .54 0l1.638-1.639a.373.373 0 0 0 0-.54l-.52-.52a6.385 6.385 0 0 0 .771-1.87h.752a.387.387 0 0 0 .386-.386V8.843a.36.36 0 0 0-.367-.385Z"/></svg>
